X:1
T:Lafayette
M:6/8
L:1/8
K:D
R:Colonial jig
"D"AFD DFD|AFD "G"DdB|"D"AFD DFD|"A"GEE E2d|!
"D"AFD DFD|AFAd2e|"D"fed "G"BdB|"D"AFD D3:|]!
"D"afd dfd|afd d2f|afd dfd|"A"gee e2f|! 19b
"D"afd dfd|afd "G"efg|"D"fed "G"BdB|"D"AFD D3:|]!
